assets/img/braze_icons/target-05.svg

<svg fill="none" height="24" viewBox="0 0 24 24" width="24" xmlns="http://www.w3.org/2000/svg"><g clip-rule="evenodd" fill="#801ed7" fill-rule="evenodd"><path d="m12 3c-4.97056 0-9 4.02944-9 9 0 4.9706 4.02944 9 9 9 4.9706 0 9-4.0294 9-9 0-4.97056-4.0294-9-9-9zm-11 9c0-6.07513 4.92487-11 11-11 6.0751 0 11 4.92487 11 11 0 6.0751-4.9249 11-11 11-6.07513 0-11-4.9249-11-11z"/><path d="m12 7c-2.76142 0-5 2.23858-5 5 0 2.7614 2.23858 5 5 5 2.7614 0 5-2.2386 5-5 0-2.76142-2.2386-5-5-5zm-7 5c0-3.86599 3.13401-7 7-7 3.866 0 7 3.13401 7 7 0 3.866-3.134 7-7 7-3.86599 0-7-3.134-7-7z"/><path d="m9 12c0-1.6569 1.3431-3 3-3s3 1.3431 3 3-1.3431 3-3 3-3-1.3431-3-3z"/></g></svg>

<svg width="24" height="24" viewBox="0 0 24 24" fill="none" xmlns="http://www.w3.org/2000/svg">
<path fill-rule="evenodd" clip-rule="evenodd" d="M12 3C7.02944 3 3 7.02944 3 12C3 16.9706 7.02944 21 12 21C16.9706 21 21 16.9706 21 12C21 7.02944 16.9706 3 12 3ZM1 12C1 5.92487 5.92487 1 12 1C18.0751 1 23 5.92487 23 12C23 18.0751 18.0751 23 12 23C5.92487 23 1 18.0751 1 12Z" fill="#801ED7"/>
<path fill-rule="evenodd" clip-rule="evenodd" d="M12 7C9.23858 7 7 9.23858 7 12C7 14.7614 9.23858 17 12 17C14.7614 17 17 14.7614 17 12C17 9.23858 14.7614 7 12 7ZM5 12C5 8.13401 8.13401 5 12 5C15.866 5 19 8.13401 19 12C19 15.866 15.866 19 12 19C8.13401 19 5 15.866 5 12Z" fill="#801ED7"/>
<path fill-rule="evenodd" clip-rule="evenodd" d="M9 12C9 10.3431 10.3431 9 12 9C13.6569 9 15 10.3431 15 12C15 13.6569 13.6569 15 12 15C10.3431 15 9 13.6569 9 12Z" fill="#801ED7"/>
</svg>
